share/icons/Adwaita/scalable/actions/tab-new-symbolic.svg

<?xml version="1.0" encoding="UTF-8"?>
<!-- Created with Inkscape (http://www.inkscape.org/) -->
<svg id="svg7384" width="16.031" height="16" version="1.1" viewBox="0 0 16.031 16" xmlns="http://www.w3.org/2000/svg" xmlns:cc="http://creativecommons.org/ns#" xmlns:dc="http://purl.org/dc/elements/1.1/" xmlns:osb="http://www.openswatchbook.org/uri/2009/osb" xmlns:rdf="http://www.w3.org/1999/02/22-rdf-syntax-ns#">
 <metadata id="metadata90">
  <rdf:RDF>
   <cc:Work rdf:about="">
    <dc:format>image/svg+xml</dc:format>
    <dc:type rdf:resource="http://purl.org/dc/dcmitype/StillImage"/>
    <dc:title>Gnome Symbolic Icon Theme</dc:title>
   </cc:Work>
  </rdf:RDF>
 </metadata>
 <title id="title9167">Gnome Symbolic Icon Theme</title>
 <g id="layer12" transform="translate(-119.97 -806)">
  <path id="path3239" d="m124.97 808s-0.70875-0.01379-1.4473 0.35547c-0.73851 0.36925-1.5527 1.3112-1.5527 2.6445v5.0117h-0.00195-1.998v5.9883h16.031v-5.9883h-1.9941-0.00586v-5.0117s0.01379-0.70875-0.35547-1.4473c-0.36926-0.73851-1.3112-1.5527-2.6445-1.5527h-6.0312zm0 2h6.0312c0.66667 0 0.72473 0.18578 0.85547 0.44727 0.13074 0.26148 0.14453 0.55273 0.14453 0.55273v6.9883l1.9941 0.02344h0.00586v1.9883h-12.031v-1.9883h0.00391l1.9961-0.01172v-7c0-0.66666 0.18578-0.72472 0.44727-0.85547 0.26148-0.13074 0.55273-0.14453 0.55273-0.14453z" style="color-rendering:auto;color:#000000;dominant-baseline:auto;enable-background:new;fill:#bebebe;filter-blend-mode:normal;filter-gaussianBlur-deviation:0;font-feature-settings:normal;font-variant-alternates:normal;font-variant-caps:normal;font-variant-east-asian:normal;font-variant-ligatures:normal;font-variant-numeric:normal;font-variant-position:normal;image-rendering:auto;isolation:auto;mix-blend-mode:normal;shape-padding:0;shape-rendering:auto;solid-color:#000000;text-decoration-color:#000000;text-decoration-line:none;text-decoration-style:solid;text-indent:0;text-orientation:mixed;text-transform:none;white-space:normal"/>
  <path id="rect12294-2-3" d="m127 811v2h-2v2h2v2h2v-2h2v-2h-2v-2z" style="fill:#bebebe"/>
 </g>
</svg>

<?xml version='1.0' encoding='UTF-8' standalone='no'?>
<!-- Created with Inkscape (http://www.inkscape.org/) -->

<svg xmlns:cc='http://creativecommons.org/ns#' xmlns:dc='http://purl.org/dc/elements/1.1/' sodipodi:docname='tab-new-symbolic.svg' inkscape:export-filename='/home/sam/dev/RESOURCES/gnome-icon-theme-symbolic/src/gnome-stencils.png' inkscape:export-xdpi='90' inkscape:export-ydpi='90' height='16' id='svg7384' xmlns:inkscape='http://www.inkscape.org/namespaces/inkscape' xmlns:osb='http://www.openswatchbook.org/uri/2009/osb' xmlns:rdf='http://www.w3.org/1999/02/22-rdf-syntax-ns#' xmlns:sodipodi='http://sodipodi.sourceforge.net/DTD/sodipodi-0.dtd' xmlns:svg='http://www.w3.org/2000/svg' version='1.1' inkscape:version='0.92+devel unknown' viewBox='0 0 16.03126 16' width='16.03126' xmlns='http://www.w3.org/2000/svg'>
  <metadata id='metadata90'>
    <rdf:RDF>
      <cc:Work rdf:about=''>
        <dc:format>image/svg+xml</dc:format>
        <dc:type rdf:resource='http://purl.org/dc/dcmitype/StillImage'/>
        <dc:title>Gnome Symbolic Icon Theme</dc:title>
      </cc:Work>
    </rdf:RDF>
  </metadata>
  <sodipodi:namedview inkscape:bbox-nodes='true' inkscape:bbox-paths='true' bordercolor='#666666' borderopacity='1' inkscape:current-layer='layer12' inkscape:cx='11.253278' inkscape:cy='9.60137' inkscape:document-rotation='0' inkscape:document-units='px' gridtolerance='10' inkscape:guide-bbox='true' guidetolerance='10' id='namedview88' inkscape:measure-end='0,0' inkscape:measure-start='-190.687,-191.14' inkscape:object-nodes='true' inkscape:object-paths='false' objecttolerance='10' pagecolor='#3a3b39' inkscape:pageopacity='1' inkscape:pageshadow='2' showborder='false' showgrid='false' showguides='true' inkscape:snap-bbox='true' inkscape:snap-bbox-midpoints='false' inkscape:snap-global='true' inkscape:snap-grids='true' inkscape:snap-nodes='true' inkscape:snap-others='false' inkscape:snap-to-guides='true' inkscape:window-height='1376' inkscape:window-maximized='1' inkscape:window-width='3440' inkscape:window-x='0' inkscape:window-y='27' inkscape:zoom='1'>
    <inkscape:grid dotted='false' empspacing='2' enabled='true' id='grid4866' originx='121.03126' originy='589' snapvisiblegridlinesonly='true' spacingx='1px' spacingy='1px' type='xygrid' visible='true'/>
  </sodipodi:namedview>
  <title id='title9167'>Gnome Symbolic Icon Theme</title>
  <defs id='defs7386'>
    <linearGradient gradientTransform='matrix(-2.7365795,0.28202934,-0.18908311,-0.99988321,239.54008,-879.45557)' id='linearGradient19282' osb:paint='solid'>
      <stop id='stop19284' offset='0' style='stop-color:#666666;stop-opacity:1;'/>
    </linearGradient>
  </defs>
  <g inkscape:groupmode='layer' id='layer9' inkscape:label='status' style='display:inline' transform='translate(-119.96894,-806)'/>
  <g inkscape:groupmode='layer' id='layer10' inkscape:label='devices' style='display:inline' transform='translate(-119.96894,-806)'/>
  <g inkscape:groupmode='layer' id='layer11' inkscape:label='apps' transform='translate(-119.96894,-806)'/>
  <g inkscape:groupmode='layer' id='layer13' inkscape:label='places' style='display:inline' transform='translate(-119.96894,-806)'/>
  <g inkscape:groupmode='layer' id='layer14' inkscape:label='mimetypes' transform='translate(-119.96894,-806)'/>
  <g inkscape:groupmode='layer' id='layer15' inkscape:label='emblems' style='display:inline' transform='translate(-119.96894,-806)'/>
  <g inkscape:groupmode='layer' id='g71291' inkscape:label='emotes' style='display:inline' transform='translate(-119.96894,-806)'/>
  <g inkscape:groupmode='layer' id='g4953' inkscape:label='categories' style='display:inline' transform='translate(-119.96894,-806)'/>
  <g inkscape:groupmode='layer' id='layer12' inkscape:label='actions' style='display:inline' transform='translate(-119.96894,-806)'>
    
    <path d='M 124.96875 808 C 124.96875 808 124.26 807.98621 123.52148 808.35547 C 122.78297 808.72472 121.96875 809.66666 121.96875 811 L 121.96875 816.01172 L 121.9668 816.01172 L 119.96875 816.01172 L 119.96875 822 L 136 822 L 136 816.01172 L 134.00586 816.01172 L 134 816.01172 L 134 811 C 134 811 134.01379 810.29125 133.64453 809.55273 C 133.27527 808.81422 132.33333 808 131 808 L 124.96875 808 z M 124.96875 810 L 131 810 C 131.66667 810 131.72473 810.18578 131.85547 810.44727 C 131.98621 810.70875 132 811 132 811 L 132 817.98828 L 133.99414 818.01172 L 134 818.01172 L 134 820 L 121.96875 820 L 121.96875 818.01172 L 121.97266 818.01172 L 123.96875 818 L 123.96875 811 C 123.96875 810.33334 124.15453 810.27528 124.41602 810.14453 C 124.6775 810.01379 124.96875 810 124.96875 810 z ' id='path3239' style='color:#000000;font-style:normal;font-variant:normal;font-weight:normal;font-stretch:normal;font-size:medium;line-height:normal;font-family:sans-serif;font-variant-ligatures:normal;font-variant-position:normal;font-variant-caps:normal;font-variant-numeric:normal;font-variant-alternates:normal;font-variant-east-asian:normal;font-feature-settings:normal;text-indent:0;text-align:start;text-decoration:none;text-decoration-line:none;text-decoration-style:solid;text-decoration-color:#000000;letter-spacing:normal;word-spacing:normal;text-transform:none;writing-mode:lr-tb;direction:ltr;text-orientation:mixed;dominant-baseline:auto;baseline-shift:baseline;text-anchor:start;white-space:normal;shape-padding:0;clip-rule:nonzero;display:inline;overflow:visible;visibility:visible;isolation:auto;mix-blend-mode:normal;color-interpolation:sRGB;color-interpolation-filters:linearRGB;solid-color:#000000;solid-opacity:1;vector-effect:none;fill:#bebebe;fill-opacity:1;fill-rule:nonzero;stroke:none;stroke-width:2;stroke-linecap:butt;stroke-linejoin:miter;stroke-miterlimit:4;stroke-dasharray:none;stroke-dashoffset:0;stroke-opacity:1;filter-blend-mode:normal;filter-gaussianBlur-deviation:0;color-rendering:auto;image-rendering:auto;shape-rendering:auto;text-rendering:auto;enable-background:new;opacity:1'/>
    <path inkscape:connector-curvature='0' d='m 127.0002,811 v 2 h -2 v 2 h 2 v 2 h 2 v -2 h 2 v -2 h -2 v -2 z' id='rect12294-2-3' sodipodi:nodetypes='ccccccccccccc' style='display:inline;fill:#bebebe;fill-opacity:1;stroke:none'/>
  </g>
</svg>
